X:1
T:Title
%%score 1 { 2 | 3 }
L:1/8
Q:1/4=110
M:4/4
K:G
V:1 treble nm="Grand Piano, Unnamed-000"
V:2 bass nm="Choir Pad, Stuttgart, 87.87"
V:3 bass 
V:1
 D2 D2 [B,G]2 [B,G]2 | [EA]2 [DA]2 [DB]2 [DG]2 | [Dd]2 [Gd]2 [Ge]2 [Gc]2 | [GA]2 [Fd]2 [GB]4 | %4
w: By~Christian~Friedrich~Witt,~Psalmodia~Sacra,~1715 * * *||||
 [GB]2 [GB]2 [FA]2 [FB]2 | [B,G]2 [EA]2 [DG]2 [DF]2 | [DG]2 [CE]2 [B,D]2 [DG]2 | %7
w: |||
 [DG]2 [DF]2 [DG]4- | [DG]4 z4 |] %9
w: ||
V:2
 B,2 A,2 G,2 G,2 | G,2 F,2 G,2 B,2 | G,2 B,2[K:treble] C2 E2 | D2 D2 D4 | E2[K:bass] B,2 C2 B,2 | %5
 B,2 A,2 A,2 A,2 | G,2 G,2 D2 B,2 | A,B, C2 B,4- | B,4 z4 |] %9
V:3
 G,2 F,2 E,2 D,2 | C,2 D,2 z2 G,,2 | B,,2 G,,2 C,2 A,,2 | D,2 D,2 G,4 | E,2 E,2 E,2 ^D,2 | %5
 E,2 ^C,2 D,2 =C,2 | B,,2 C,2 G,,2 B,,C, | D,2 D,2 G,,4- | G,,4 z4 |] %9

